X: 40570
T: Tommy Tourish's
R: jig
M: 6/8
K: Adorian
|:eAA cAA|eAA Bcd|eAA cBA|dBG Bcd|
eAA cAA|eAA Bcd|faf gfe|dBG Bcd:|
|:c3 cde|d3 efg|c3 edc|d2^c dBG|
c3 GAB|c2d efg|a2f ge^c|dBG Bcd:|

